X: 38263
T: St-Hubert 1997
R: reel
M: 4/4
K: Bminor
|:(3BcB GB cABc|dcde fdef|gbge fdBd|cffg fedc|
(3BcB GB cABc|dcde fdef|gbge fdBd|1 cfec fedc:|2 cfec fede||
|:ffdf afdf|efed (3BcB AB|ceAc eAce|dedc (3BcB AF|
GBAG (3BcB AG|FAde f2(3fff|efga gfed|1 cABc (3dcB Ad:|2 cABc d2c2||

